X:1
T:Title
%%score { ( 1 4 ) | ( 2 3 ) }
L:1/8
M:3/4
K:Bb
V:1 treble nm="Grand Piano"
V:4 treble 
V:2 bass 
V:3 bass 
V:1
 z2 z2[Q:1/4=108] [DF]2 | [DF]2 [Fd]2 [Ec]2 | [DB]4 [DF]2 | F2 G2 A2 | [DB]4 [DF]2 | G2 B2 G2 | %6
 [DF]4 [EB]2 | Bc/B/ A2 [B,=EB]2 | c4 F2 | [Fd]2 [Ge]2 [Fd]2 | [DFB]4 [Fd]2 | G4 z2 | %12
 [B,DF]4 [B,DF]2 | E2- [EA]2 B2 | F4 [Fd]2 | [Ec]4 [A,EF]2 | [B,DB]4 [B,D]2 | [B,DG]4 [D^FA]2 | %18
 [DGB]4 [DGB]2 | [C^FA]4 [A,DF]2 | [B,DG]4 [B,D]2 | [B,DG]4 [D^FA]2 | [DB]4 [Gd]2 | %23
 d2 z2 [B,=EG]2 | c4 F2 | [Fd]2 [Ge]2 [Fd]2 | [DFB]4 [Fd]2 | c2 B2 G2 | [DB]4 [DF]2 | %29
 F2- [Fc]2 [_Ad]2 | [Ge]4 [B,EG]2 | [B,DF]2 [C=EG]2 [C_EA]2 |[M:2/4] [B,DB]4 |[M:1/4] F2 | %34
[M:3/4] F2 G2 A2 | B4 D2 | E2 D2 C2 | B,4 [B,FB]2 | c2 c2 d2 | c4 A2 | [=EB]2 [EG]2 [Ec]2 | %41
[M:2/4] [A,F]4 |[M:1/4] [B,DF]2 |[M:3/4] [B,EG]2 [B,EG]2 [D^FA]2 | B2 B2 B2 | c2 B2 c2 | %46
 [Fd]4 [Fd]2 | [Fd]2 [Fe]2 [Fd]2 |[M:7/8] [EG]2 [Gc]3 [EGc]2 |[M:3/4] [DF]2 [C=EG]2 [C_EA]2 | %50
[M:2/4] [B,DB]4 |] %51
V:2
 z2 z2 [B,,B,]2 | [B,,B,]4 [F,A,]2 | [B,,F,]4 [B,,B,]2 | [F,E]2- [F,B,E]2 [F,CE]2 | %4
 [B,,B,]4 [B,,B,]2 | [B,E]2 z2 z2 | [B,,B,]4 [B,,B,]2 | G,2 z2 z2 | [F,A,F]4 F,2 | %9
 [B,,B,]4 [B,,B,]2 | B,,4 [D,B,]2 | z2[K:treble] B2[K:bass] E,2 | B,,4 B,,2 | z2 A,2 [E,G,E]2 | %14
 [B,D]4 [B,,B,]2 | [F,A,]4 F,2 | B,,4 G,2 | G,4 D,2 | G,4 G,2 | D,4 D,2 | G,4 G,2 | G,4 D,2 | %22
 G,4 [G,B,]2 | z2[K:treble] c2[K:bass] C,2 | [F,A,F]4 F,2 | [B,,B,]4 [B,,B,]2 | B,,4 [D,B,]2 | %27
 [E,C]4 [E,B,E]2 | [B,,B,]4 [B,,B,]2 | [D,B,]2 [C,A,]2 [B,,B,]2 | [E,B,]4 E,2 | F,2 C,2 F,2 | %32
[M:2/4] B,,4 |[M:1/4] F,2 |[M:3/4] F,2 G,2 A,2 | B,4 D,2 | E,2 D,2 C,2 | B,,4 D,2 | %38
 [F,A,F]2 [F,A,F]2 [F,B,F]2 | [F,A,F]4 [F,CF]2 | [C,C]2 [C,C]2 [C,B,]2 |[M:2/4] F,4 |[M:1/4] B,,2 | %43
[M:3/4] E,2 E,2 D,2 | [G,DG]2 [G,DG]2 [G,B,D]2 | [F,A,F]2 [F,G,F]2[K:bass] [F,A,F]2 | %46
 [B,,B,]4 [B,,B,]2 | [B,,B,]2 [C,A,]2 [D,B,]2 |[M:7/8] [E,B,]2 [E,B,]3 E,2 |[M:3/4] F,2 C,2 F,2 | %50
[M:2/4] B,,4 |] %51
V:3
 x6 | x6 | x6 | A,2 z2 z2 | x6 | E,2- [E,EG]2 [E,B,E]2 | x6 | C,2- [C,C]2 C,2 | x6 | x6 | x6 | %11
 [E,B,]4[K:treble][K:bass] z2 | x6 | E,4 z2 | x6 | x6 | x6 | x6 | x6 | x6 | x6 | x6 | x6 | %23
 [C,G,]4[K:treble][K:bass] z2 | x6 | x6 | x6 | x6 | x6 | x6 | x6 | x6 |[M:2/4] x4 |[M:1/4] x2 | %34
[M:3/4] x6 | x6 | x6 | x6 | x6 | x6 | x6 |[M:2/4] x4 |[M:1/4] x2 |[M:3/4] x6 | x6 | x4[K:bass] x2 | %46
 x6 | x6 |[M:7/8] x7 |[M:3/4] x6 |[M:2/4] x4 |] %51
V:4
 x6 | x6 | x6 | x6 | x6 | x6 | x6 | =E4 z2 | x6 | x6 | x6 | c2 z2 [B,EG]2 | x6 | [B,G]2 z2 z2 | %14
 x6 | x6 | x6 | x6 | x6 | x6 | x6 | x6 | x6 | =E4 z2 | x6 | x6 | x6 | G4 z2 | x6 | B2 z2 z2 | x6 | %31
 x6 |[M:2/4] x4 |[M:1/4] x2 |[M:3/4] x6 | x6 | x6 | x6 | x6 | x6 | x6 |[M:2/4] x4 |[M:1/4] x2 | %43
[M:3/4] x6 | x6 | x6 | x6 | x6 |[M:7/8] x7 |[M:3/4] x6 |[M:2/4] x4 |] %51

